packages/core/src/svgs/unfi.svg

<svg width="24" height="24" viewBox="0 0 24 24" fill="none" xmlns="http://www.w3.org/2000/svg">
<g clip-path="url(#clip0_31_20180)">
<path d="M0 0H24V24H0V0Z" fill="#38F997"/>
<path d="M8.09139 8.14307H12.9085L15.8571 11.0916V15.9088L12.9085 18.8574H8.09139L5.14282 15.9088V11.0916L8.09139 8.14307ZM8.62282 9.42878L6.42854 11.6231V15.3774L8.62282 17.5716H12.3771L14.5714 15.3774V11.6231L12.3771 9.42878H8.62282Z" fill="black"/>
<path d="M11.5201 4.71436H16.3372L19.2858 7.66293V12.4801L16.3372 15.4286H11.5201L8.57153 12.4801V7.66293L11.5201 4.71436ZM12.0515 6.00007L9.85725 8.19436V11.9486L12.0515 14.1429H15.8058L18.0001 11.9486V8.19436L15.8058 6.00007H12.0515Z" fill="white"/>
</g>
<defs>
<clipPath id="clip0_31_20180">
<rect width="24" height="24" fill="white"/>
</clipPath>
</defs>
</svg>

<svg xmlns="http://www.w3.org/2000/svg" width="24" height="24" fill="none" viewBox="0 0 24 24"><g clip-path="url(#a)"><path fill="#38F997" d="M0 0h24v24H0z"/><path fill="#000" d="M8.091 8.143h4.818l2.948 2.949v4.817l-2.948 2.948H8.09L5.143 15.91v-4.817zm.532 1.286-2.194 2.194v3.754l2.194 2.195h3.754l2.194-2.195v-3.754L12.377 9.43z"/><path fill="#fff" d="M11.52 4.714h4.817l2.949 2.949v4.817l-2.949 2.949H11.52L8.572 12.48V7.663zM12.052 6 9.857 8.194v3.755l2.195 2.194h3.754L18 11.949V8.194L15.806 6z"/></g><defs><clipPath id="a"><path fill="#fff" d="M0 0h24v24H0z"/></clipPath></defs></svg>
